X: 494
T: Yuo diedao
L: 1/8
M: 2/4
K: G
B> Ad2 [I:setbarnb 1]| 
c> BA2 | 
B> Ad2 | 
c> BA2 | 
d e d G | 
A G F E | 
D2E G | 
D4 | 
G2F E | 
D2D2 | 
B> Ad2 | 
c> BA2 | 
d e d G | 
A G F E | 
D2E G | 
D4 |]

@@@ Tune index: 9368
